icon-themes/elementary_svg/cmd/sc_signpdf.svg

<?xml version="1.0" encoding="UTF-8" standalone="no"?>
<svg
   xmlns:dc="http://purl.org/dc/elements/1.1/"
   xmlns:cc="http://creativecommons.org/ns#"
   xmlns:rdf="http://www.w3.org/1999/02/22-rdf-syntax-ns#"
   xmlns:svg="http://www.w3.org/2000/svg"
   xmlns="http://www.w3.org/2000/svg"
   xmlns:xlink="http://www.w3.org/1999/xlink"
   xmlns:sodipodi="http://sodipodi.sourceforge.net/DTD/sodipodi-0.dtd"
   xmlns:inkscape="http://www.inkscape.org/namespaces/inkscape"
   version="1.1"
   width="16"
   height="16"
   id="svg3810"
   sodipodi:docname="sc_signpdf.svg"
   inkscape:version="0.92.3 (unknown)"
   inkscape:export-filename="/home/rizmut/Dokumen/Rizmut/Github/libreoffice-style-elementary/images_elementary/cmd/sc_signpdf.png"
   inkscape:export-xdpi="96"
   inkscape:export-ydpi="96">
  <sodipodi:namedview
     pagecolor="#ffffff"
     bordercolor="#666666"
     borderopacity="1"
     objecttolerance="10"
     gridtolerance="10"
     guidetolerance="10"
     inkscape:pageopacity="0"
     inkscape:pageshadow="2"
     inkscape:window-width="1366"
     inkscape:window-height="706"
     id="namedview33"
     showgrid="false"
     inkscape:zoom="20.85965"
     inkscape:cx="8.4768192"
     inkscape:cy="9.9052923"
     inkscape:window-x="0"
     inkscape:window-y="0"
     inkscape:window-maximized="1"
     inkscape:current-layer="svg3810" />
  <defs
     id="defs3812">
    <linearGradient
       x1="23.99999"
       y1="6.9230647"
       x2="23.99999"
       y2="41.076912"
       id="linearGradient3988"
       xlink:href="#linearGradient3977"
       gradientUnits="userSpaceOnUse"
       gradientTransform="matrix(0.24324324,0,0,0.35135133,2.1621636,-0.43242804)" />
    <linearGradient
       id="linearGradient3977">
      <stop
         id="stop3979"
         style="stop-color:#ffffff;stop-opacity:1"
         offset="0" />
      <stop
         id="stop3981"
         style="stop-color:#ff9f9f;stop-opacity:0.87132353"
         offset="0.99017823" />
      <stop
         id="stop3983"
         style="stop-color:#ffffff;stop-opacity:0.15686275"
         offset="1" />
      <stop
         id="stop3985"
         style="stop-color:#febcbc;stop-opacity:0.39215687"
         offset="1" />
    </linearGradient>
    <linearGradient
       id="linearGradient3600">
      <stop
         id="stop3602"
         style="stop-color:#f4f4f4;stop-opacity:1"
         offset="0" />
      <stop
         id="stop3604"
         style="stop-color:#dbdbdb;stop-opacity:1"
         offset="1" />
    </linearGradient>
    <linearGradient
       x1="25.132275"
       y1="0.98520643"
       x2="25.132275"
       y2="47.013336"
       id="linearGradient3806"
       xlink:href="#linearGradient3242-4-8"
       gradientUnits="userSpaceOnUse"
       gradientTransform="matrix(0.28571361,0,0,0.30419701,1.1428727,0.2326048)" />
    <linearGradient
       id="linearGradient3104-9">
      <stop
         id="stop3106-5"
         style="stop-color:#ae0000;stop-opacity:0.96078432"
         offset="0" />
      <stop
         id="stop3108-5"
         style="stop-color:#b20000;stop-opacity:0.49411765"
         offset="1" />
    </linearGradient>
    <linearGradient
       x1="-51.786404"
       y1="50.786446"
       x2="-51.786404"
       y2="2.9062471"
       id="linearGradient3019"
       xlink:href="#linearGradient3104-9"
       gradientUnits="userSpaceOnUse"
       gradientTransform="matrix(0.25378586,0,0,0.30501865,19.128979,-0.68547704)" />
    <radialGradient
       r="12.671875"
       fy="9.9941158"
       fx="8.276144"
       cy="9.9941158"
       cx="8.276144"
       gradientTransform="matrix(0,2.5645243,-2.8983276,0,36.991821,-24.485687)"
       gradientUnits="userSpaceOnUse"
       id="radialGradient3411"
       xlink:href="#linearGradient3600" />
    <linearGradient
       id="linearGradient3242-4-8">
      <stop
         offset="0"
         style="stop-color:#f89b7e;stop-opacity:1"
         id="stop3244-7-5" />
      <stop
         offset="0.26238"
         style="stop-color:#e35d4f;stop-opacity:1"
         id="stop3246-1-3" />
      <stop
         offset="0.66093999"
         style="stop-color:#c6262e;stop-opacity:1"
         id="stop3248-5-7" />
      <stop
         offset="1"
         style="stop-color:#690b2c;stop-opacity:1"
         id="stop3250-7-0" />
    </linearGradient>
    <linearGradient
       y2="41.814945"
       x2="23.99999"
       y1="6.1851163"
       x1="23.99999"
       gradientTransform="matrix(0.24324054,0,0,0.35134798,2.1614594,-0.43236222)"
       gradientUnits="userSpaceOnUse"
       id="linearGradient3132"
       xlink:href="#linearGradient3977" />
    <linearGradient
       inkscape:collect="always"
       xlink:href="#linearGradient3977"
       id="linearGradient868"
       x1="7.1227922"
       y1="-5.4709835"
       x2="7.0075693"
       y2="4.6921782"
       gradientUnits="userSpaceOnUse" />
    <radialGradient
       id="i"
       cx="16.823883"
       cy="11.368058"
       fx="16.777113"
       fy="11.597148"
       gradientTransform="matrix(0,0.80952381,-1.1390522,0,20.948813,-5.369334)"
       gradientUnits="userSpaceOnUse"
       r="10.5">
      <stop
         offset="0"
         stop-color="#f2e0c4"
         id="stop30" />
      <stop
         offset=".76470584"
         stop-color="#e5af5b"
         id="stop32" />
      <stop
         offset="1"
         stop-color="#af6900"
         id="stop34" />
    </radialGradient>
    <linearGradient
       id="h"
       gradientTransform="matrix(0.66666666,0,0,0.46666666,-12.166666,1.466666)"
       gradientUnits="userSpaceOnUse"
       x1="24"
       x2="24"
       xlink:href="#e"
       y1="29"
       y2="14" />
    <linearGradient
       id="e">
      <stop
         offset="0"
         stop-color="#d88f22"
         id="stop18" />
      <stop
         offset="1"
         stop-color="#d88f22"
         stop-opacity="0"
         id="stop20" />
    </linearGradient>
    <linearGradient
       id="g"
       gradientTransform="matrix(0.66666666,0,0,0.46666666,-3.166667,1.466666)"
       gradientUnits="userSpaceOnUse"
       x1="24"
       x2="24"
       xlink:href="#e"
       y1="29"
       y2="14" />
    <linearGradient
       id="f"
       gradientTransform="matrix(-0.93357745,0,0,1,23.379997,-20)"
       gradientUnits="userSpaceOnUse"
       x1="8.6428576"
       x2="23.299999"
       y1="27.5"
       y2="27.5">
      <stop
         offset="0"
         stop-color="#fff"
         id="stop23" />
      <stop
         offset="1"
         stop-color="#fff"
         stop-opacity="0"
         id="stop25" />
    </linearGradient>
  </defs>
  <metadata
     id="metadata3815">
    <rdf:RDF>
      <cc:Work
         rdf:about="">
        <dc:format>image/svg+xml</dc:format>
        <dc:type
           rdf:resource="http://purl.org/dc/dcmitype/StillImage" />
        <dc:title></dc:title>
      </cc:Work>
    </rdf:RDF>
  </metadata>
  <g
     id="g896">
    <path
       d="m 3,1 c 2.2915074,0 9.999988,8.904e-4 9.999988,8.904e-4 L 13,15 C 13,15 6.3333332,15 3,15 3,10.333334 3,5.6666664 3,1 Z"
       id="path4160"
       style="display:inline;fill:url(#linearGradient3806);fill-opacity:1.0;stroke:none" />
    <path
       mask="none"
       clip-path="none"
       d="m 12.5,14.5 -9.0000001,0 0,-13 L 12.5,1.5 Z"
       id="rect6741-1"
       style="fill:none;stroke:url(#linearGradient868);stroke-width:1;stroke-linecap:round;stroke-linejoin:miter;stroke-miterlimit:4;stroke-dasharray:none;stroke-dashoffset:0;stroke-opacity:0.87058824" />
    <path
       d="m 2.4999621,0.49997396 c 2.5206756,0 11.0000629,9.54e-4 11.0000629,9.54e-4 l 1.3e-5,14.99909804 c 0,0 -7.3333841,0 -11.000076,0 0,-5.000017 0,-10.000035 0,-15.00005204 z"
       id="path4160-8"
       style="display:inline;fill:none;stroke:url(#linearGradient3019);stroke-width:0.99992192;stroke-linecap:butt;stroke-linejoin:round;stroke-miterlimit:4;stroke-dasharray:none;stroke-dashoffset:0;stroke-opacity:1" />
    <path
       sodipodi:nodetypes="cccscccccccccccc"
       inkscape:connector-curvature="0"
       id="path6711"
       d="M 9.277174,1.0000001 C 6.353579,3.7854151 4.28485,4.9423591 3,5.4202591 v 1.478448 C 3.714076,6.6652361 4.599342,6.2795431 5.52038,5.6390091 7.63942,4.1653251 10.16712,1.3696131 10.16712,1.3696131 9.472334,2.8828601 9.270219,8.0997831 9.256794,15 H 13 l -0.04794,-1.866248 C 12.787876,12.322265 11.994244,7.9849451 11.86336,7.1961471 11.518584,4.2911321 12.123748,1.849564 12.3125,1.03125 c -0.04911,-5e-6 -1.61047,-0.031085 -3.035326,-0.03125 z M 3,8.6864221 V 10.112069 C 4.631445,10.859778 6.523823,12.787464 7.558424,15 h 1.11413 C 8.182243,12.971298 5.004634,9.9112921 3,8.6864221 Z"
       style="color:#000000;clip-rule:nonzero;display:inline;overflow:visible;visibility:visible;opacity:1;isolation:auto;mix-blend-mode:normal;color-interpolation:sRGB;color-interpolation-filters:linearRGB;solid-color:#000000;solid-opacity:1;fill:url(#radialGradient3411);fill-opacity:1;fill-rule:nonzero;stroke:none;stroke-width:0.99999994;stroke-linecap:butt;stroke-linejoin:miter;stroke-miterlimit:4;stroke-dasharray:none;stroke-dashoffset:0;stroke-opacity:1;marker:none;color-rendering:auto;image-rendering:auto;shape-rendering:auto;text-rendering:auto;enable-background:accumulate" />
    <path
       id="path6713-2"
       d="M 12.3125,1.03125 C 10.933385,2.1738909 6.4091137,5.6283908 3,5.1875 l 0,3.15625 c 0,0 7.072543,1.4589543 10,-1.1875 l 0,-6.0625 C 12.92583,1.042119 12.839385,1.03125 12.75,1.03125 l -0.4375,0 z m 0.65625,7.5625 c -1.305828,1.793247 -2.608733,4.060196 -3.5,6.40625 l 1.125,0 c 0.690809,-1.542126 1.561646,-3.227005 2.375,-4.40625 l 0,-2 z"
       style="color:#000000;display:inline;overflow:visible;visibility:visible;opacity:0.1;fill:#fff6f6;fill-opacity:1;fill-rule:evenodd;stroke:none;stroke-width:1;marker:none;enable-background:accumulate;clip-rule:nonzero;isolation:auto;mix-blend-mode:normal;color-interpolation:sRGB;color-interpolation-filters:linearRGB;solid-color:#000000;solid-opacity:1;stroke-linecap:butt;stroke-linejoin:miter;stroke-miterlimit:4;stroke-dasharray:none;stroke-dashoffset:0;stroke-opacity:1;filter-blend-mode:normal;filter-gaussianBlur-deviation:0;color-rendering:auto;image-rendering:auto;shape-rendering:auto;text-rendering:auto" />
    <path
       id="rect6741-1-8-0"
       d="m 3.4992804,5.5202017 0,1.401819 m 5.656969,7.5779293 3.3429306,0 0,-5.4478063 m -0.0055,-7.5520934 -3.4382436,0 m -5.556188,7.2148914 0,1.3318833 m 4.038627,4.453125 1.049207,0"
       style="opacity:0.3;fill:none;stroke:url(#linearGradient3132);stroke-width:1;stroke-linecap:round;stroke-linejoin:miter;stroke-miterlimit:4;stroke-dasharray:none;stroke-dashoffset:0;stroke-opacity:1" />
    <path
       id="path4160-6-1-0"
       d="m 2.5,5.315775 0,1.50405 M 9.331371,15.5 13.5,15.5 13.5,9.722472 M 13.15532,0.50050798 9.337904,0.49999998 M 2.5,8.749359 l 0,1.434608 m 5.05633,5.306092 1.149386,0.0099"
       style="color:#000000;display:inline;overflow:visible;visibility:visible;opacity:0.2;fill:none;stroke:#410000;stroke-width:1;stroke-linecap:butt;stroke-linejoin:round;stroke-miterlimit:4;stroke-dasharray:none;stroke-dashoffset:0;stroke-opacity:1;marker:none;enable-background:accumulate" />
  </g>
  <g
     transform="matrix(0.53330255,0,0,0.53330255,8.533764,7.467159)"
     id="g65">
    <path
       style="fill:none;stroke:#e9e9e9;stroke-linecap:square"
       inkscape:connector-curvature="0"
       d="M 4.4999998,6.4996391 V 5.1242817 c 0,-2.4782011 1.3702785,-3.6555186 3.4872865,-3.62457 2.1285247,0.030949 3.5133857,1.1172142 3.5133857,3.62457 V 6.4996391 H 10.06959 V 5.7540562 c 0,-0.6297745 0.148159,-2.6676754 -2.0673917,-2.6676754 -2.1972832,0 -2.0371829,2.0504603 -2.0286629,2.6651649 v 0.7480934 z"
       id="path49" />
    <rect
       style="fill:url(#i)"
       height="8"
       rx="0.52380902"
       ry="0.533333"
       width="11"
       x="2.5"
       y="7.5"
       id="rect51" />
    <rect
       style="fill:url(#h)"
       height="7"
       rx="1.6"
       ry="0.5"
       width="1"
       x="3"
       y="8"
       id="rect53" />
    <rect
       style="fill:url(#g)"
       height="7"
       rx="1.6"
       ry="0.5"
       width="1"
       x="12"
       y="8"
       id="rect55" />
    <g
       style="fill:none"
       id="g63">
      <rect
         style="stroke:#de9d3c"
         height="8"
         rx="0.52381003"
         ry="0.533333"
         width="11"
         x="2.5"
         y="7.5"
         id="rect57" />
      <path
         style="stroke:url(#f);stroke-linecap:square"
         inkscape:connector-curvature="0"
         d="m 3.5,9.5 9,-3.79e-4 M 3.5,11.5 l 9,-3.79e-4 M 3.5,13.5 l 9,-3.79e-4"
         id="path59" />
      <path
         style="stroke:#ffffff;stroke-linecap:round"
         inkscape:connector-curvature="0"
         d="M 5.2,6 C 5.2,6 4.6101697,2.5 8,2.5 11.38983,2.5 10.8,6 10.8,6"
         id="path61" />
    </g>
  </g>
</svg>

<svg xmlns="http://www.w3.org/2000/svg" xmlns:xlink="http://www.w3.org/1999/xlink" width="16" height="16"><defs><linearGradient id="a"><stop offset="0" stop-color="#fff"/><stop offset=".99" stop-color="#ff9f9f" stop-opacity=".871"/><stop offset="1" stop-color="#fff" stop-opacity=".157"/><stop offset="1" stop-color="#febcbc" stop-opacity=".392"/></linearGradient><linearGradient id="d"><stop offset="0" stop-color="#f4f4f4"/><stop offset="1" stop-color="#dbdbdb"/></linearGradient><linearGradient x1="25.132" y1=".985" x2="25.132" y2="47.013" id="i" xlink:href="#b" gradientUnits="userSpaceOnUse" gradientTransform="matrix(.2857 0 0 .3042 1.143 .233)"/><linearGradient id="c"><stop offset="0" stop-color="#ae0000" stop-opacity=".961"/><stop offset="1" stop-color="#b20000" stop-opacity=".494"/></linearGradient><linearGradient x1="-51.786" y1="50.786" x2="-51.786" y2="2.906" id="k" xlink:href="#c" gradientUnits="userSpaceOnUse" gradientTransform="matrix(.2538 0 0 .30502 19.13 -.685)"/><radialGradient r="12.672" fy="9.994" fx="8.276" cy="9.994" cx="8.276" gradientTransform="matrix(0 2.56452 -2.89833 0 36.992 -24.486)" gradientUnits="userSpaceOnUse" id="l" xlink:href="#d"/><linearGradient id="b"><stop offset="0" stop-color="#f89b7e"/><stop offset=".262" stop-color="#e35d4f"/><stop offset=".661" stop-color="#c6262e"/><stop offset="1" stop-color="#690b2c"/></linearGradient><linearGradient y2="41.815" x2="24" y1="6.185" x1="24" gradientTransform="matrix(.24324 0 0 .35135 2.16 -.432)" gradientUnits="userSpaceOnUse" id="m" xlink:href="#a"/><linearGradient xlink:href="#a" id="j" x1="7.123" y1="-5.471" x2="7.008" y2="4.692" gradientUnits="userSpaceOnUse"/><linearGradient id="e"><stop offset="0" stop-color="#d88f22"/><stop offset="1" stop-color="#d88f22" stop-opacity="0"/></linearGradient><linearGradient xlink:href="#f" id="n" gradientUnits="userSpaceOnUse" gradientTransform="matrix(.42397 -.43985 .38445 .3761 10.938 -1.51)" x1="23.576" y1="25.357" x2="23.576" y2="31.211"/><linearGradient id="f"><stop offset="0" stop-color="#181818"/><stop offset=".135" stop-color="#dbdbdb"/><stop offset=".202" stop-color="#a4a4a4"/><stop offset=".27" stop-color="#fff"/><stop offset=".447" stop-color="#8d8d8d"/><stop offset=".571" stop-color="#959595"/><stop offset=".72" stop-color="#cecece"/><stop offset="1" stop-color="#181818"/></linearGradient><linearGradient xlink:href="#g" id="o" gradientUnits="userSpaceOnUse" gradientTransform="matrix(.41198 -.4274 .44993 .44016 9.582 -3.16)" x1="10.869" y1="25.077" x2="11.083" y2="30.467"/><linearGradient id="g"><stop offset="0" stop-color="#1b1b1b"/><stop offset=".135" stop-color="#f3f3f3"/><stop offset=".202" stop-color="#b6b6b6"/><stop offset=".27" stop-color="#fff"/><stop offset=".447" stop-color="#9d9d9d"/><stop offset=".571" stop-color="#a6a6a6"/><stop offset=".72" stop-color="#e5e5e5"/><stop offset="1" stop-color="#1b1b1b"/></linearGradient><linearGradient xlink:href="#h" id="p" gradientUnits="userSpaceOnUse" gradientTransform="matrix(.32592 -.0283 -.02012 .32893 23.363 -7.068)" x1="5.712" y1="37.817" x2="9.522" y2="41.392"/><linearGradient id="h"><stop offset="0" stop-color="#a1a1a1"/><stop offset="1" stop-color="#828282"/></linearGradient></defs><path d="M3 1h10v14H3V1z" fill="url(#i)"/><path d="M12.5 14.5h-9v-13h9z" fill="none" stroke="url(#j)" stroke-linecap="round" stroke-opacity=".871"/><path d="M2.5.5h11v15h-11V.5z" fill="none" stroke="url(#k)" stroke-linejoin="round"/><path d="M9.277 1C6.354 3.785 4.285 4.942 3 5.42V6.9c.714-.235 1.6-.62 2.52-1.26 2.12-1.475 4.647-4.27 4.647-4.27C9.472 2.883 9.27 8.1 9.257 15H13l-.048-1.866c-.164-.812-.958-5.15-1.09-5.938-.343-2.905.262-5.346.45-6.165-.05 0-1.61-.03-3.035-.03zM3 8.686v1.426c1.63.748 3.524 2.675 4.558 4.888h1.115C8.183 12.97 5.005 9.91 3 8.686z" style="isolation:auto;mix-blend-mode:normal" color="#000" overflow="visible" solid-color="#000000" fill="url(#l)"/><path d="M12.313 1.03C10.933 2.175 6.409 5.63 3 5.188v3.157s7.073 1.46 10-1.188V1.094c-.074-.052-.16-.063-.25-.063h-.438zm.656 7.564c-1.307 1.793-2.61 4.06-3.5 6.406h1.124c.69-1.542 1.56-3.227 2.375-4.406v-2z" style="isolation:auto;mix-blend-mode:normal;filter-blend-mode:normal;filter-gaussianBlur-deviation:0" color="#000" overflow="visible" opacity=".1" fill="#fff6f6" fill-rule="evenodd" solid-color="#000000"/><path d="M3.5 5.52v1.402M9.155 14.5H12.5V9.052M12.493 1.5h-3.44M3.5 8.715v1.332M7.537 14.5h1.05" opacity=".3" fill="none" stroke="url(#m)" stroke-linecap="round"/><path d="M2.5 5.316V6.82m6.83 8.68h4.17V9.722m-.345-9.22L9.338.5M2.5 8.75v1.434m5.056 5.306l1.15.01" color="#000" overflow="visible" opacity=".2" fill="none" stroke="#410000" stroke-linejoin="round"/><g><path d="M25.797 3.03c.28-.23.59.13 1.193.718.278.4.58.804.717 1.27L34.87-2.16l3.732-4.5c.262-.274 1.95-2.476 1.33-3.083-.622-.608-2.985 1.404-3.248 1.676L32.69-4.432z" fill="url(#n)" stroke="#0c0c0c" stroke-width=".741" stroke-linejoin="round" transform="translate(-11.178 10.795) scale(.6744)"/><path d="M6.248 12.81c.19-.156.37.116.776.513.405.396.62.565.474.76L12.28 9.4l.018-.02-.01-.008c.148-.197-.04-.652-.445-1.048-.406-.397-.873-.583-1.063-.427l-.017.018-4.515 4.895z" opacity=".6" fill="#0c0c0c"/><path d="M27.58 5.162c.22-.29.1-.966-.5-1.554-.602-.588-1.065-.682-1.346-.45-.746 1.476-1.078 1.355-2.233 3.89.044.088.127.173.252.3z" fill="url(#o)" fill-rule="evenodd" stroke="url(#p)" stroke-width=".741" stroke-linecap="round" stroke-linejoin="round" transform="translate(-11.178 10.795) scale(.6744)"/><path d="M11.104 7.494c.19-.156.656.03 1.062.427.405.397.593.853.445 1.05l.01.008c.52-.784 1.896-1.954 2.3-2.72.147-.197 1.17-1.546.765-1.942-.406-.397-1.806.688-1.996.845l-2.586 2.334z" opacity=".6" fill="#0c0c0c"/></g></svg>
